; HEADER_BLOCK_START
; generated by OrcaSlicer 2.1.0-dev on 2024-04-05 at 16:53:48
; total layer number: 17
; filament_density: 1.24
; filament_diameter: 1.73
; max_z_height: 5.10
; HEADER_BLOCK_END

; THUMBNAIL_BLOCK_START

;
; THUMBNAIL_BLOCK_END

; external perimeters extrusion width = 0.44mm
; perimeters extrusion width = 0.44mm
; infill extrusion width = 0.60mm
; solid infill extrusion width = 0.50mm
; top infill extrusion width = 0.44mm
; first layer extrusion width = 0.50mm

; EXECUTABLE_BLOCK_START
EXCLUDE_OBJECT_DEFINE NAME=Cube_id_0_copy_0 CENTER=90,90 POLYGON=[[81,81],[99,81],[99,99],[81,99],[81,81]]
M73 P0 R3
;TYPE:Custom
START_PRINT BED_TEMP=55 EXTRUDER_TEMP=200 BED_MESH_NAME="textured pei plate"
G90
G21
M83 ; use relative distances for extrusion
; filament start gcode
SET_PRESSURE_ADVANCE ADVANCE=0.04; Override pressure advance value
;LAYER_CHANGE
;Z:0.3
;HEIGHT:0.3
;BEFORE_LAYER_CHANGE
;0.3
G92 E0

G1 E-.3 F1800
;AFTER_LAYER_CHANGE
;0.3
;_SET_FAN_SPEED_CHANGING_LAYER
SET_VELOCITY_LIMIT ACCEL=500
G1 X78.956 Y79.675 F15000
G1 Z.3
G1 E.3 F1800
;TYPE:Skirt
;WIDTH:0.5
G1 F2998.5
G1 X80.005 Y78.777 E.07834
G1 X81 Y78.564 E.05767
G1 X84 Y78.564 Z.3 E.17012
G1 X87 Y78.564 Z.3 E.17013
G1 X90 Y78.564 Z.3 E.17013
G1 X93 Y78.564 Z.3 E.17013
G1 F2999.061
G1 X96 Y78.564 Z.3 E.17013
G1 X99 Y78.564 Z.3 E.17013
G1 X100.325 Y78.956 E.07834
G1 F2997.525
G1 X101.223 Y80.005 E.07834
G1 X101.436 Y81 E.05767
G1 F2998.357
G1 X101.436 Y84 Z.3 E.17013
G1 X101.436 Y87 Z.3 E.17013
G1 X101.436 Y90 Z.3 E.17013
G1 X101.436 Y93 Z.3 E.17013
G1 F2999.061
G1 X101.436 Y96 Z.3 E.17013
G1 X101.436 Y99 Z.3 E.17013
G1 X101.044 Y100.325 E.07834
G1 F2997.528
G1 X99.995 Y101.223 E.07834
G1 X99 Y101.436 E.05767
G1 F2998.362
G1 X96 Y101.436 Z.3 E.17013
G1 X93 Y101.436 Z.3 E.17013
M73 P1 R3
G1 X90 Y101.436 Z.3 E.17013
G1 X87 Y101.436 Z.3 E.17013
G1 F2999.062
G1 X84 Y101.436 Z.3 E.17013
G1 X81 Y101.436 Z.3 E.17013
G1 X79.675 Y101.044 E.07834
G1 F2997.528
G1 X78.777 Y99.995 E.07834
G1 X78.564 Y99 E.05767
G1 F2998.419
G1 X78.564 Y96 Z.3 E.17012
G1 X78.564 Y93 Z.3 E.17013
G1 X78.564 Y90 Z.3 E.17013
G1 F2999.281
G1 X78.564 Y87 Z.3 E.17013
G1 X78.564 Y84 Z.3 E.17013
G1 F3000
G1 X78.564 Y81 Z.3 E.17013
G1 X78.945 Y79.714 E.07607
; printing object Cube id:0 copy 0
G1 E-.21 F1800
;WIPE_START
G1 F3000
G1 X80.005 Y78.777 E-.06368
G1 X80.577 Y78.655 E-.02632
;WIPE_END
EXCLUDE_OBJECT_START NAME=Cube_id_0_copy_0
G1 X83.13 Y81.491 Z.5 F15000
G1 X97.879 Y97.879 Z.5
G1 Z.3
G1 E.3 F1800
;TYPE:Inner wall
;WIDTH:0.5
G1 F1200
G1 X82.121 Y97.879 E.89358
M73 P2 R3
G1 X82.121 Y82.121 E.89358
G1 X97.879 Y82.121 E.89358
G1 X97.879 Y97.879 E.89358
M73 P3 R3
G1 X98.314 Y98.314 F15000
G1 F1200
G1 X81.686 Y98.314 Z.3 E.94299
G1 X81.686 Y81.686 E.94299
G1 X98.314 Y81.686 E.94299
M73 P4 R3
G1 X98.314 Y95.648 Z.3 E.7918
G1 F1199.937
G1 X98.314 Y98.314 Z.3 E.15119
G1 X98.55 Y98.404 F15000
;TYPE:Outer wall
G1 F1200
G1 X98.75 Y98.75
G1 X81.25 Y98.75 E.99239
M73 P5 R3
G1 X81.25 Y81.25 E.99239
G1 X98.75 Y81.25 E.99239
G1 X98.75 Y98.75 E.99239
M73 P6 R3
G1 X98.673 Y98.729
G1 E-.21 F1800
;WIPE_START
G1 F1200
G1 X96.75 Y98.75 E-.09
;WIPE_END
G1 X96.776 Y98.346 Z.5 F15000
G1 X98.347 Y98.347
G1 X98.346 Y83.141
G1 X97.748 Y83.141
G1 Z.3
G1 E.3 F1800
;TYPE:Bottom surface
;WIDTH:0.50391
G1 F3000
G1 X96.859 Y82.252 E.07193
G1 X96.238 Y82.252 F15000
G1 F2999.087
G1 X97.748 Y83.762 E.12222
G1 X97.748 Y84.384 F15000
G1 F2999.897
G1 X96.682 Y83.318 Z.3 E.08626
G1 X95.616 Y82.252 Z.3 E.08626
G1 X94.994 Y82.252 F15000
G1 F3000
G1 X97.748 Y85.006 E.22282
G1 X97.748 Y85.627 F15000
G1 F2999.427
G1 X96.061 Y83.939 Z.3 E.13656
G1 X94.373 Y82.252 Z.3 E.13656
G1 X93.751 Y82.252 F15000
G1 F3000
G1 X97.748 Y86.249 E.32341
M73 P7 R3
G1 X97.748 Y86.87 F15000
G1 F2999.601
G1 X96.209 Y85.331 Z.3 E.12457
G1 X94.669 Y83.791 Z.3 E.12457
G1 X93.13 Y82.252 Z.3 E.12457
G1 X92.508 Y82.252 F15000
G1 F2999.968
G1 X94.255 Y83.999 Z.3 E.14134
G1 X96.001 Y85.745 Z.3 E.14134
G1 X97.748 Y87.492 Z.3 E.14134
G1 X97.748 Y88.114 F15000
G1 F3000
G1 X91.886 Y82.252 E.47431
G1 X91.265 Y82.252 F15000
G1 F2999.758
G1 X92.886 Y83.873 Z.3 E.13115
G1 X94.507 Y85.493 Z.3 E.13115
G1 X96.127 Y87.114 Z.3 E.13115
G1 X97.748 Y88.735 Z.3 E.13115
G1 X97.748 Y89.357 F15000
G1 F3000
G1 X90.643 Y82.252 E.5749
G1 X90.022 Y82.252 F15000
G1 F2999.753
G1 X91.954 Y84.184 Z.3 E.1563
G1 X93.885 Y86.115 Z.3 E.1563
G1 X95.816 Y88.046 Z.3 E.1563
G1 X97.748 Y89.978 Z.3 E.1563
G1 X97.748 Y90.6 F15000
G1 F3000
G1 X89.4 Y82.252 E.67549
G1 X88.779 Y82.252 F15000
G1 F2999.796
G1 X90.573 Y84.046 Z.3 E.14516
G1 X92.367 Y85.84 Z.3 E.14516
M73 P8 R3
G1 X94.16 Y87.633 Z.3 E.14516
G1 X95.954 Y89.427 Z.3 E.14516
G1 X97.748 Y91.221 Z.3 E.14516
G1 X97.748 Y91.843 F15000
G1 F2999.988
G1 X95.83 Y89.925 Z.3 E.15522
G1 X93.912 Y88.007 Z.3 E.15522
G1 X91.993 Y86.088 Z.3 E.15522
G1 X90.075 Y84.17 Z.3 E.15522
G1 X88.157 Y82.252 Z.3 E.15522
G1 X87.535 Y82.252 F15000
G1 F3000
G1 X97.748 Y92.465 E.82639
G1 X97.748 Y93.086 F15000
G1 F2999.858
G1 X95.942 Y91.28 Z.3 E.14611
G1 X94.137 Y89.475 Z.3 E.14611
G1 X92.331 Y87.669 Z.3 E.14611
G1 X90.525 Y85.863 Z.3 E.14611
G1 X88.72 Y84.058 Z.3 E.14611
G1 X86.914 Y82.252 Z.3 E.14611
G1 X86.292 Y82.252 F15000
G1 F3000
G1 X97.748 Y93.708 E.92698
G1 X97.748 Y94.329 F15000
G1 F2999.848
G1 X95.735 Y92.316 Z.3 E.16288
G1 X93.722 Y90.303 Z.3 E.16288
G1 X91.71 Y88.29 Z.3 E.16288
G1 X89.697 Y86.278 Z.3 E.16288
G1 X87.684 Y84.265 Z.3 E.16288
G1 X85.671 Y82.252 Z.3 E.16288
G1 X85.049 Y82.252 F15000
M73 P9 R3
G1 F2999.99
G1 X87.166 Y84.368 Z.3 E.17126
G1 X89.282 Y86.485 Z.3 E.17126
G1 X91.398 Y88.602 Z.3 E.17126
G1 X93.515 Y90.718 Z.3 E.17126
G1 X95.632 Y92.834 Z.3 E.17126
G1 X97.748 Y94.951 Z.3 E.17126
G1 X97.748 Y95.573 F15000
G1 F3000
G1 X84.427 Y82.252 E1.07787
G1 X83.806 Y82.252 F15000
G1 F2999.866
G1 X85.787 Y84.233 Z.3 E.16032
G1 X87.768 Y86.214 Z.3 E.16032
G1 X89.75 Y88.196 Z.3 E.16032
G1 X91.731 Y90.177 Z.3 E.16032
G1 X93.712 Y92.158 Z.3 E.16032
G1 X97.748 Y96.194 Z.3 E.32659
G1 X97.748 Y96.816 F15000
G1 F3000
G1 X83.184 Y82.252 E1.17847
G1 X82.563 Y82.252 F15000
G1 F2999.91
G1 X84.544 Y84.233 Z.3 E.16032
G1 X86.526 Y86.215 Z.3 E.16033
G1 X88.507 Y88.196 Z.3 E.16033
G1 X90.488 Y90.177 Z.3 E.16032
M73 P10 R3
G1 X92.469 Y92.158 Z.3 E.16032
G1 F3000
G1 X97.748 Y97.437 Z.3 E.42714
G1 X97.437 Y97.748 F15000
G1 F3000
G1 X94.14 Y94.451 Z.3 E.26682
G1 F2999.989
G1 X92.158 Y92.469 Z.3 E.16032
G1 X90.177 Y90.488 Z.3 E.16032
G1 X88.196 Y88.507 Z.3 E.16032
G1 X86.215 Y86.526 Z.3 E.16032
G1 X84.233 Y84.544 Z.3 E.16032
G1 X82.252 Y82.563 Z.3 E.16032
G1 X82.252 Y83.184 F15000
G1 F3000
G1 X96.816 Y97.748 E1.17846
G1 X96.194 Y97.748 F15000
G1 F2999.929
G1 X94.213 Y95.767 Z.3 E.16032
G1 X92.231 Y93.785 Z.3 E.16032
G1 X90.25 Y91.804 Z.3 E.16032
G1 X88.269 Y89.823 Z.3 E.16032
G1 X86.288 Y87.842 Z.3 E.16032
G1 F3000
G1 X82.252 Y83.806 Z.3 E.32655
G1 X82.252 Y84.428 F15000
G1 F2999.905
G1 X83.685 Y85.861 Z.3 E.11592
G1 X85.666 Y87.842 Z.3 E.16032
G1 X87.647 Y89.823 Z.3 E.16032
G1 X89.628 Y91.804 Z.3 E.16032
G1 X91.61 Y93.786 Z.3 E.16032
G1 X93.591 Y95.767 Z.3 E.16032
G1 X95.572 Y97.748 Z.3 E.16032
G1 X94.951 Y97.748 F15000
M73 P11 R3
G1 F3000
G1 X82.252 Y85.049 E1.02757
G1 X82.252 Y85.671 F15000
G1 F2999.905
G1 X84.265 Y87.684 Z.3 E.16288
G1 X86.278 Y89.697 Z.3 E.16288
G1 X88.29 Y91.71 Z.3 E.16288
G1 X90.303 Y93.722 Z.3 E.16288
G1 X92.316 Y95.735 Z.3 E.16288
G1 X94.329 Y97.748 Z.3 E.16288
G1 X93.708 Y97.748 F15000
G1 F3000
G1 X82.252 Y86.292 E.92697
G1 X82.252 Y86.914 F15000
G1 F2999.871
G1 X84.058 Y88.72 Z.3 E.14611
G1 X85.863 Y90.525 Z.3 E.14611
G1 X87.669 Y92.331 Z.3 E.14611
G1 X89.475 Y94.137 Z.3 E.14611
G1 X91.28 Y95.942 Z.3 E.14611
G1 X93.086 Y97.748 Z.3 E.14611
G1 X92.465 Y97.748 F15000
G1 F3000
G1 X82.252 Y87.535 E.82638
G1 X82.252 Y88.157 F15000
G1 F2999.903
G1 X84.17 Y90.075 Z.3 E.15522
G1 X86.088 Y91.993 Z.3 E.15522
M73 P12 R3
G1 X88.007 Y93.912 Z.3 E.15522
G1 X89.925 Y95.83 Z.3 E.15522
G1 F3000
G1 X91.843 Y97.748 Z.3 E.15522
G1 X91.221 Y97.748 F15000
G1 F2999.871
G1 X89.427 Y95.954 Z.3 E.14516
G1 X87.633 Y94.16 Z.3 E.14516
G1 X85.84 Y92.367 Z.3 E.14515
G1 X84.046 Y90.573 Z.3 E.14516
G1 X82.252 Y88.779 Z.3 E.14516
G1 X82.252 Y89.4 F15000
G1 F3000
G1 X90.6 Y97.748 E.67549
G1 X89.978 Y97.748 F15000
G1 F2999.843
G1 X88.046 Y95.816 Z.3 E.1563
G1 X86.115 Y93.885 Z.3 E.1563
G1 X84.184 Y91.954 Z.3 E.1563
G1 X82.252 Y90.022 Z.3 E.1563
G1 X82.252 Y90.643 F15000
G1 F3000
G1 X89.357 Y97.748 E.57489
G1 X88.735 Y97.748 F15000
G1 F2999.861
G1 X87.114 Y96.127 Z.3 E.13115
G1 X85.493 Y94.507 Z.3 E.13115
G1 X83.873 Y92.886 Z.3 E.13115
G1 F3000
G1 X82.252 Y91.265 Z.3 E.13115
G1 X82.252 Y91.887 F15000
G1 F2999.726
G1 X84.206 Y93.841 Z.3 E.1581
G1 X86.159 Y95.794 Z.3 E.1581
G1 X88.113 Y97.748 Z.3 E.1581
G1 X87.492 Y97.748 F15000
G1 F3000
G1 X82.252 Y92.508 E.424
G1 X82.252 Y93.13 F15000
M73 P13 R3
G1 F2999.752
G1 X83.791 Y94.669 Z.3 E.12457
G1 X85.331 Y96.209 Z.3 E.12457
G1 X86.87 Y97.748 Z.3 E.12457
G1 X86.249 Y97.748 F15000
G1 F3000
G1 X82.252 Y93.751 E.32341
G1 X82.252 Y94.373 F15000
G1 F2999.773
G1 X83.939 Y96.061 Z.3 E.13655
G1 F3000
G1 X85.627 Y97.748 Z.3 E.13655
G1 X85.005 Y97.748 F15000
G1 F2999.49
G1 X83.628 Y96.372 Z.3 E.1114
G1 X82.252 Y94.995 Z.3 E.1114
G1 X82.252 Y95.616 F15000
G1 F3000
G1 X84.384 Y97.748 E.17251
G1 X83.762 Y97.748 F15000
G1 F2999.518
G1 X82.252 Y96.238 E.12222
G1 X82.252 Y96.859 F15000
G1 F3000
G1 X83.141 Y97.748 E.07192
; stop printing object Cube id:0 copy 0
M106 S255
;LAYER_CHANGE
;Z:0.6
;HEIGHT:0.3
;BEFORE_LAYER_CHANGE
;0.6
G92 E0

G1 E-.21 F1800
;WIPE_START
G1 F3000
G1 X82.252 Y96.859 E-.09
;WIPE_END
EXCLUDE_OBJECT_END NAME=Cube_id_0_copy_0
;AFTER_LAYER_CHANGE
;0.6
;_SET_FAN_SPEED_CHANGING_LAYER
M140 S55 ; set bed temperature
; printing object Cube id:0 copy 0
SET_VELOCITY_LIMIT ACCEL=4000
EXCLUDE_OBJECT_START NAME=Cube_id_0_copy_0
G17
G3 Z.6 I-.067 J.91 P1  F15000
G1 X98.029 Y98.029 Z.6
G1 E.3 F1800
SET_VELOCITY_LIMIT ACCEL=700
;TYPE:Inner wall
;WIDTH:0.44
G1 F4200
G1 X81.971 Y98.029 E.78517
G1 X81.971 Y95.353 Z.6 E.13086
G1 X81.971 Y92.676 Z.6 E.13086
G1 X81.971 Y90 Z.6 E.13086
G1 X81.971 Y87.324 Z.6 E.13086
G1 X81.971 Y84.647 Z.6 E.13086
G1 X81.971 Y81.971 Z.6 E.13086
G1 X98.029 Y81.971 E.78517
M73 P14 R3
G1 X98.029 Y84.647 Z.6 E.13086
G1 X98.029 Y87.324 Z.6 E.13086
G1 X98.029 Y90 Z.6 E.13086
G1 X98.029 Y92.676 Z.6 E.13086
G1 X98.029 Y95.353 Z.6 E.13086
G1 X98.029 Y98.029 Z.6 E.13086
SET_VELOCITY_LIMIT ACCEL=4000
G1 X98.404 Y98.404 F15000
SET_VELOCITY_LIMIT ACCEL=700
G1 F4199.681
G1 X95.603 Y98.404 Z.6 E.13699
G1 X92.801 Y98.404 Z.6 E.13699
G1 X90 Y98.404 Z.6 E.13699
G1 X87.199 Y98.404 Z.6 E.13698
G1 X84.397 Y98.404 Z.6 E.13699
G1 X81.596 Y98.404 Z.6 E.13699
G1 X81.596 Y81.596 E.82191
G1 X98.404 Y81.596 E.82191
G1 F4099.988
G1 X98.404 Y84.397 Z.6 E.13698
G1 F3899.963
G1 X98.404 Y87.199 Z.6 E.13699
G1 F3699.938
G1 X98.404 Y90 Z.6 E.13698
G1 F3499.914
G1 X98.404 Y92.801 Z.6 E.13698
G1 F3299.889
G1 X98.404 Y95.603 Z.6 E.13699
G1 F2999.852
G1 X98.404 Y98.404 Z.6 E.13698
SET_VELOCITY_LIMIT ACCEL=4000
G1 X98.58 Y98.434 F15000
SET_VELOCITY_LIMIT ACCEL=500
;TYPE:Outer wall
G1 F3000
G1 X98.78 Y98.78
G1 X81.22 Y98.78 E.85864
G1 X81.22 Y95.587 Z.6 E.15611
M73 P15 R3
G1 X81.22 Y92.714 Z.6 E.14051
G1 X81.22 Y89.84 Z.6 E.14051
G1 F2999.999
G1 X81.22 Y86.967 Z.6 E.14051
G1 X81.22 Y84.093 Z.6 E.14051
G1 X81.22 Y81.22 Z.6 E.14051
G1 X98.78 Y81.22 E.85864
G1 X98.78 Y98.78 E.85864
G1 X98.703 Y98.759
SET_VELOCITY_LIMIT ACCEL=4000
G1 X97.023 Y97.913 F15000
SET_VELOCITY_LIMIT ACCEL=2000
;TYPE:Internal solid infill
;WIDTH:0.504443
G1 F2685.725
G1 X97.913 Y97.023 E.07211
SET_VELOCITY_LIMIT ACCEL=4000
G1 X97.913 Y96.401 F15000
SET_VELOCITY_LIMIT ACCEL=2000
G1 F3000.903
G1 X96.401 Y97.913 E.12253
SET_VELOCITY_LIMIT ACCEL=4000
G1 X95.778 Y97.913 F15000
SET_VELOCITY_LIMIT ACCEL=2000
G1 F3310.506
G1 X96.846 Y96.846 Z.6 E.08647
G1 F3663.745
G1 X97.913 Y95.778 Z.6 E.08647
SET_VELOCITY_LIMIT ACCEL=4000
G1 X97.913 Y95.156 F15000
SET_VELOCITY_LIMIT ACCEL=2000
G1 F3795.819
G1 X96.535 Y96.535 Z.6 E.11168
G1 F4193.821
G1 X95.156 Y97.913 Z.6 E.11168
SET_VELOCITY_LIMIT ACCEL=4000
G1 X94.534 Y97.913 F15000
SET_VELOCITY_LIMIT ACCEL=2000
G1 F4194.858
G1 X96.223 Y96.223 Z.6 E.13689
G1 F4199.255
G1 X97.913 Y94.534 Z.6 E.13689
SET_VELOCITY_LIMIT ACCEL=4000
G1 X97.913 Y93.911 F15000
SET_VELOCITY_LIMIT ACCEL=2000
G1 F4200
G1 X93.911 Y97.913 E.3242
SET_VELOCITY_LIMIT ACCEL=4000
G1 X93.289 Y97.913 F15000
SET_VELOCITY_LIMIT ACCEL=2000
G1 F4199.694
G1 X94.83 Y96.372 Z.6 E.12487
G1 X96.372 Y94.83 Z.6 E.12487
G1 F4200
G1 X97.913 Y93.289 Z.6 E.12487
SET_VELOCITY_LIMIT ACCEL=4000
G1 X97.913 Y92.667 F15000
SET_VELOCITY_LIMIT ACCEL=2000
G1 F4199.691
G1 X96.164 Y94.416 Z.6 E.14168
G1 X94.416 Y96.164 Z.6 E.14168
G1 X92.667 Y97.913 Z.6 E.14168
SET_VELOCITY_LIMIT ACCEL=4000
G1 X92.044 Y97.913 F15000
SET_VELOCITY_LIMIT ACCEL=2000
G1 F4200
G1 X97.913 Y92.044 E.47546
SET_VELOCITY_LIMIT ACCEL=4000
M73 P16 R3
G1 X97.913 Y91.422 F15000
SET_VELOCITY_LIMIT ACCEL=2000
G1 F4199.79
G1 X96.29 Y93.045 Z.6 E.13147
G1 X94.667 Y94.667 Z.6 E.13147
G1 X93.045 Y96.29 Z.6 E.13147
G1 F4200
G1 X91.422 Y97.913 Z.6 E.13147
SET_VELOCITY_LIMIT ACCEL=4000
G1 X90.8 Y97.913 F15000
SET_VELOCITY_LIMIT ACCEL=2000
G1 F4199.776
G1 X92.578 Y96.135 Z.6 E.14408
G1 X94.357 Y94.357 Z.6 E.14407
G1 X96.135 Y92.578 Z.6 E.14407
G1 X97.913 Y90.8 Z.6 E.14408
SET_VELOCITY_LIMIT ACCEL=4000
G1 X97.913 Y90.177 F15000
SET_VELOCITY_LIMIT ACCEL=2000
G1 F4200
G1 X90.177 Y97.913 E.62672
SET_VELOCITY_LIMIT ACCEL=4000
G1 X89.555 Y97.913 F15000
SET_VELOCITY_LIMIT ACCEL=2000
G1 F4199.841
G1 X91.645 Y95.824 Z.6 E.16928
G1 X93.734 Y93.734 Z.6 E.16928
G1 X95.824 Y91.645 Z.6 E.16929
G1 F4200
G1 X97.913 Y89.555 Z.6 E.16928
SET_VELOCITY_LIMIT ACCEL=4000
G1 X97.913 Y88.933 F15000
SET_VELOCITY_LIMIT ACCEL=2000
G1 F4199.829
G1 X96.117 Y90.729 Z.6 E.14551
G1 X94.321 Y92.525 Z.6 E.14551
G1 X92.525 Y94.321 Z.6 E.14551
G1 X90.729 Y96.117 Z.6 E.14551
G1 X88.933 Y97.913 Z.6 E.14551
SET_VELOCITY_LIMIT ACCEL=4000
G1 X88.31 Y97.913 F15000
SET_VELOCITY_LIMIT ACCEL=2000
G1 F4200
G1 X97.913 Y88.31 E.77798
SET_VELOCITY_LIMIT ACCEL=4000
G1 X97.913 Y87.688 F15000
SET_VELOCITY_LIMIT ACCEL=2000
G1 F4199.865
G1 X95.868 Y89.733 Z.6 E.16568
G1 X93.823 Y91.778 Z.6 E.16568
G1 X91.778 Y93.823 Z.6 E.16568
G1 X89.733 Y95.868 Z.6 E.16568
G1 F4200
G1 X87.688 Y97.913 Z.6 E.16568
SET_VELOCITY_LIMIT ACCEL=4000
G1 X87.066 Y97.913 F15000
SET_VELOCITY_LIMIT ACCEL=2000
G1 F4199.898
G1 X88.874 Y96.105 Z.6 E.14647
G1 X90.682 Y94.297 Z.6 E.14647
G1 X92.49 Y92.49 Z.6 E.14647
G1 X94.297 Y90.682 Z.6 E.14647
G1 X96.105 Y88.874 Z.6 E.14647
G1 X97.913 Y87.066 Z.6 E.14647
SET_VELOCITY_LIMIT ACCEL=4000
G1 X97.913 Y86.443 F15000
SET_VELOCITY_LIMIT ACCEL=2000
G1 F4200
G1 X86.443 Y97.913 E.92923
SET_VELOCITY_LIMIT ACCEL=4000
G1 X85.821 Y97.913 F15000
SET_VELOCITY_LIMIT ACCEL=2000
G1 F4199.883
G1 X87.836 Y95.898 Z.6 E.16327
G1 X89.852 Y93.882 Z.6 E.16327
G1 X91.867 Y91.867 Z.6 E.16327
M73 P17 R3
G1 X93.882 Y89.852 Z.6 E.16328
G1 X95.898 Y87.836 Z.6 E.16327
G1 F4200
G1 X97.913 Y85.821 Z.6 E.16327
SET_VELOCITY_LIMIT ACCEL=4000
G1 X97.913 Y85.199 F15000
SET_VELOCITY_LIMIT ACCEL=2000
G1 F4199.883
G1 X95.794 Y87.318 Z.6 E.17168
G1 X93.675 Y89.437 Z.6 E.17168
G1 X91.556 Y91.556 Z.6 E.17168
G1 X89.437 Y93.675 Z.6 E.17168
G1 X87.318 Y95.794 Z.6 E.17168
G1 X85.199 Y97.913 Z.6 E.17168
SET_VELOCITY_LIMIT ACCEL=4000
G1 X84.576 Y97.913 F15000
SET_VELOCITY_LIMIT ACCEL=2000
G1 F4200
G1 X97.913 Y84.576 E1.08049
SET_VELOCITY_LIMIT ACCEL=4000
G1 X97.913 Y83.954 F15000
SET_VELOCITY_LIMIT ACCEL=2000
G1 F4199.896
G1 X95.919 Y85.948 Z.6 E.16156
G1 X93.925 Y87.942 Z.6 E.16156
G1 X91.931 Y89.936 Z.6 E.16156
G1 X89.936 Y91.931 Z.6 E.16156
G1 X87.942 Y93.925 Z.6 E.16156
G1 X85.948 Y95.919 Z.6 E.16156
G1 F4200
G1 X83.954 Y97.913 Z.6 E.16156
SET_VELOCITY_LIMIT ACCEL=4000
G1 X83.332 Y97.913 F15000
SET_VELOCITY_LIMIT ACCEL=2000
G1 F4199.9
G1 X85.415 Y95.83 Z.6 E.16876
G1 X87.498 Y93.747 Z.6 E.16876
G1 X89.581 Y91.664 Z.6 E.16876
G1 X91.664 Y89.581 Z.6 E.16876
G1 X93.747 Y87.498 Z.6 E.16876
